Newaita-dark/actions/32/distribute-vertical-top.svg

<svg height="32" viewBox="0 0 32 32" width="32" xmlns="http://www.w3.org/2000/svg"><g fill="#e0e0e0"><path d="m29.105469 14.140625h-5.289063l2.644532 3.308594zm0 0"/><path d="m22.492188 4.21875c0-.734375-.589844-1.324219-1.324219-1.324219h-6.613281c-.734376 0-1.324219.589844-1.324219 1.324219v6.617188c0 .730468.589843 1.320312 1.324219 1.320312h6.613281c.734375 0 1.324219-.589844 1.324219-1.320312zm-2.648438 1.984375v2.648437c0 .363282-.292969.660157-.660156.660157h-2.644532c-.367187 0-.664062-.296875-.664062-.660157v-2.648437c0-.367187.296875-.660156.664062-.660156h2.644532c.367187 0 .660156.292969.660156.660156zm0 0"/><path d="m29.105469 3.558594v1.320312c0 .367188-.292969.664063-.660157.664063h-25.136718c-.367188 0-.664063-.296875-.664063-.664063v-1.320312c0-.367188.296875-.664063.664063-.664063h25.136718c.367188 0 .660157.296875.660157.664063zm0 0"/><path d="m22.492188 21.417969c0-.730469-.589844-1.324219-1.324219-1.324219h-11.246094c-.730469 0-1.320313.59375-1.320313 1.324219v6.617187c0 .730469.589844 1.320313 1.320313 1.320313h11.246094c.734375 0 1.324219-.589844 1.324219-1.320313zm-2.648438 1.984375v2.648437c0 .363281-.292969.660157-.660156.660157h-7.277344c-.367188 0-.660156-.296876-.660156-.660157v-2.648437c0-.367188.292968-.660156.660156-.660156h7.277344c.367187 0 .660156.292968.660156.660156zm0 0"/><path d="m29.105469 20.757812v1.324219c0 .363281-.292969.660157-.660157.660157h-25.136718c-.367188 0-.664063-.296876-.664063-.660157v-1.324219c0-.367187.296875-.664062.664063-.664062h25.136718c.367188 0 .660157.296875.660157.664062zm0 0"/><path d="m29.105469 11.496094h-5.289063l2.644532-3.308594zm0 0"/></g></svg>

<?xml version="1.0" encoding="UTF-8"?>
<svg xmlns="http://www.w3.org/2000/svg" xmlns:xlink="http://www.w3.org/1999/xlink" width="32px" height="32px" viewBox="0 0 32 32" version="1.1">
<g id="surface1">
<path style=" stroke:none;fill-rule:nonzero;fill:rgb(87.843138%,87.843138%,87.843138%);fill-opacity:1;" d="M 29.105469 14.140625 L 23.816406 14.140625 L 26.460938 17.449219 Z M 29.105469 14.140625 "/>
<path style=" stroke:none;fill-rule:nonzero;fill:rgb(87.843138%,87.843138%,87.843138%);fill-opacity:1;" d="M 22.492188 4.21875 C 22.492188 3.484375 21.902344 2.894531 21.167969 2.894531 L 14.554688 2.894531 C 13.820312 2.894531 13.230469 3.484375 13.230469 4.21875 L 13.230469 10.835938 C 13.230469 11.566406 13.820312 12.15625 14.554688 12.15625 L 21.167969 12.15625 C 21.902344 12.15625 22.492188 11.566406 22.492188 10.835938 Z M 19.84375 6.203125 L 19.84375 8.851562 C 19.84375 9.214844 19.550781 9.511719 19.183594 9.511719 L 16.539062 9.511719 C 16.171875 9.511719 15.875 9.214844 15.875 8.851562 L 15.875 6.203125 C 15.875 5.835938 16.171875 5.542969 16.539062 5.542969 L 19.183594 5.542969 C 19.550781 5.542969 19.84375 5.835938 19.84375 6.203125 Z M 19.84375 6.203125 "/>
<path style=" stroke:none;fill-rule:nonzero;fill:rgb(87.843138%,87.843138%,87.843138%);fill-opacity:1;" d="M 29.105469 3.558594 L 29.105469 4.878906 C 29.105469 5.246094 28.8125 5.542969 28.445312 5.542969 L 3.308594 5.542969 C 2.941406 5.542969 2.644531 5.246094 2.644531 4.878906 L 2.644531 3.558594 C 2.644531 3.191406 2.941406 2.894531 3.308594 2.894531 L 28.445312 2.894531 C 28.8125 2.894531 29.105469 3.191406 29.105469 3.558594 Z M 29.105469 3.558594 "/>
<path style=" stroke:none;fill-rule:nonzero;fill:rgb(87.843138%,87.843138%,87.843138%);fill-opacity:1;" d="M 22.492188 21.417969 C 22.492188 20.6875 21.902344 20.09375 21.167969 20.09375 L 9.921875 20.09375 C 9.191406 20.09375 8.601562 20.6875 8.601562 21.417969 L 8.601562 28.035156 C 8.601562 28.765625 9.191406 29.355469 9.921875 29.355469 L 21.167969 29.355469 C 21.902344 29.355469 22.492188 28.765625 22.492188 28.035156 Z M 19.84375 23.402344 L 19.84375 26.050781 C 19.84375 26.414062 19.550781 26.710938 19.183594 26.710938 L 11.90625 26.710938 C 11.539062 26.710938 11.246094 26.414062 11.246094 26.050781 L 11.246094 23.402344 C 11.246094 23.035156 11.539062 22.742188 11.90625 22.742188 L 19.183594 22.742188 C 19.550781 22.742188 19.84375 23.035156 19.84375 23.402344 Z M 19.84375 23.402344 "/>
<path style=" stroke:none;fill-rule:nonzero;fill:rgb(87.843138%,87.843138%,87.843138%);fill-opacity:1;" d="M 29.105469 20.757812 L 29.105469 22.082031 C 29.105469 22.445312 28.8125 22.742188 28.445312 22.742188 L 3.308594 22.742188 C 2.941406 22.742188 2.644531 22.445312 2.644531 22.082031 L 2.644531 20.757812 C 2.644531 20.390625 2.941406 20.09375 3.308594 20.09375 L 28.445312 20.09375 C 28.8125 20.09375 29.105469 20.390625 29.105469 20.757812 Z M 29.105469 20.757812 "/>
<path style=" stroke:none;fill-rule:nonzero;fill:rgb(87.843138%,87.843138%,87.843138%);fill-opacity:1;" d="M 29.105469 11.496094 L 23.816406 11.496094 L 26.460938 8.1875 Z M 29.105469 11.496094 "/>
</g>
</svg>
